Newaita-dark/.places-ubuntu/64/folder-locked.svg

<?xml version="1.0" encoding="UTF-8"?>
<svg xmlns="http://www.w3.org/2000/svg" xmlns:xlink="http://www.w3.org/1999/xlink" width="64px" height="64px" viewBox="0 0 64 64" version="1.1">
<defs>
<linearGradient id="linear0" gradientUnits="userSpaceOnUse" x1="254" y1="233.5" x2="254" y2="254.666672" gradientTransform="matrix(0.125012,0,0,0.125012,-0.00000763012,26.877574)">
<stop offset="0" style="stop-color:rgb(0%,0%,0%);stop-opacity:0.27451;"/>
<stop offset="1" style="stop-color:rgb(0%,0%,0%);stop-opacity:0;"/>
</linearGradient>
<radialGradient id="radial0" gradientUnits="userSpaceOnUse" cx="450.908936" cy="189.579361" fx="450.908936" fy="189.579361" r="21.166656" gradientTransform="matrix(0.000000348341,-0.156265,-0.281277,-0.000000203077,108.230425,127.190669)">
<stop offset="0" style="stop-color:rgb(0%,0%,0%);stop-opacity:0.313726;"/>
<stop offset="0.222222" style="stop-color:rgb(0%,0%,0%);stop-opacity:0.27451;"/>
<stop offset="1" style="stop-color:rgb(0%,0%,0%);stop-opacity:0;"/>
</radialGradient>
<radialGradient id="radial1" gradientUnits="userSpaceOnUse" cx="450.908936" cy="189.579361" fx="450.908936" fy="189.579361" r="21.166656" gradientTransform="matrix(-0.000000348341,0.156265,0.281277,0.000000203077,-44.724356,-15.054954)">
<stop offset="0" style="stop-color:rgb(0%,0%,0%);stop-opacity:0.313726;"/>
<stop offset="0.222222" style="stop-color:rgb(0%,0%,0%);stop-opacity:0.27451;"/>
<stop offset="1" style="stop-color:rgb(0%,0%,0%);stop-opacity:0;"/>
</radialGradient>
<radialGradient id="radial2" gradientUnits="userSpaceOnUse" cx="450.908936" cy="189.579361" fx="450.908936" fy="189.579361" r="21.166656" gradientTransform="matrix(-0.000000348341,-0.156265,0.281277,-0.000000203077,-44.724356,127.190669)">
<stop offset="0" style="stop-color:rgb(0%,0%,0%);stop-opacity:0.313726;"/>
<stop offset="0.222222" style="stop-color:rgb(0%,0%,0%);stop-opacity:0.27451;"/>
<stop offset="1" style="stop-color:rgb(0%,0%,0%);stop-opacity:0;"/>
</radialGradient>
<radialGradient id="radial3" gradientUnits="userSpaceOnUse" cx="450.908936" cy="189.579361" fx="450.908936" fy="189.579361" r="21.166656" gradientTransform="matrix(0.000000348341,0.156265,-0.281277,0.000000203077,108.230422,-15.054955)">
<stop offset="0" style="stop-color:rgb(0%,0%,0%);stop-opacity:0.313726;"/>
<stop offset="0.222222" style="stop-color:rgb(0%,0%,0%);stop-opacity:0.27451;"/>
<stop offset="1" style="stop-color:rgb(0%,0%,0%);stop-opacity:0;"/>
</radialGradient>
<linearGradient id="linear1" gradientUnits="userSpaceOnUse" x1="254" y1="-147.5" x2="254" y2="-31.083334" gradientTransform="matrix(0.125012,0,0,0.125012,0.00000249951,26.877563)">
<stop offset="0" style="stop-color:rgb(64.313728%,64.313728%,64.313728%);stop-opacity:0;"/>
<stop offset="1" style="stop-color:rgb(100%,100%,100%);stop-opacity:0.196078;"/>
</linearGradient>
<linearGradient id="linear2" gradientUnits="userSpaceOnUse" x1="254" y1="233.5" x2="254" y2="-105.166656" gradientTransform="matrix(0.125012,0,0,0.125012,-0.00000362479,26.877566)">
<stop offset="0" style="stop-color:rgb(34.509805%,34.509805%,34.509805%);stop-opacity:0;"/>
<stop offset="1" style="stop-color:rgb(98.039216%,98.039216%,98.039216%);stop-opacity:0.196078;"/>
</linearGradient>
</defs>
<g id="surface1">
<path style=" stroke:none;fill-rule:nonzero;fill:url(#linear0);" d="M 7.9375 56.066406 L 55.566406 56.066406 L 55.566406 58.714844 L 7.9375 58.714844 Z M 7.9375 56.066406 "/>
<path style=" stroke:none;fill-rule:nonzero;fill:url(#radial0);" d="M 55.566406 56.066406 L 60.859375 56.066406 L 60.859375 53.421875 L 55.566406 53.421875 Z M 55.566406 56.066406 "/>
<path style=" stroke:none;fill-rule:nonzero;fill:url(#radial1);" d="M 7.9375 56.066406 L 2.644531 56.066406 L 2.644531 58.714844 L 7.9375 58.714844 Z M 7.9375 56.066406 "/>
<path style=" stroke:none;fill-rule:nonzero;fill:url(#radial2);" d="M 7.9375 56.066406 L 2.644531 56.066406 L 2.644531 53.421875 L 7.9375 53.421875 Z M 7.9375 56.066406 "/>
<path style=" stroke:none;fill-rule:nonzero;fill:url(#radial3);" d="M 55.566406 56.066406 L 60.859375 56.066406 L 60.859375 58.714844 L 55.566406 58.714844 Z M 55.566406 56.066406 "/>
<path style=" stroke:none;fill-rule:nonzero;fill:rgb(98.431373%,52.549022%,25.882354%);fill-opacity:1;" d="M 14.554688 8.4375 L 57.550781 8.4375 C 59.015625 8.4375 60.199219 9.621094 60.199219 11.085938 L 60.199219 21.007812 C 60.199219 22.46875 59.015625 23.652344 57.550781 23.652344 L 14.554688 23.652344 C 13.09375 23.652344 11.90625 22.46875 11.90625 21.007812 L 11.90625 11.085938 C 11.90625 9.621094 13.09375 8.4375 14.554688 8.4375 Z M 14.554688 8.4375 "/>
<path style=" stroke:none;fill-rule:nonzero;fill:url(#linear1);" d="M 14.554688 8.4375 L 57.550781 8.4375 C 59.015625 8.4375 60.199219 9.621094 60.199219 11.085938 L 60.199219 21.007812 C 60.199219 22.46875 59.015625 23.652344 57.550781 23.652344 L 14.554688 23.652344 C 13.09375 23.652344 11.90625 22.46875 11.90625 21.007812 L 11.90625 11.085938 C 11.90625 9.621094 13.09375 8.4375 14.554688 8.4375 Z M 14.554688 8.4375 "/>
<path style=" stroke:none;fill-rule:nonzero;fill:rgb(100%,100%,100%);fill-opacity:0.392157;" d="M 14.554688 8.605469 C 13.085938 8.605469 11.90625 9.785156 11.90625 11.25 L 11.90625 11.582031 C 11.90625 10.113281 13.085938 8.933594 14.554688 8.933594 L 57.550781 8.933594 C 59.019531 8.933594 60.199219 10.113281 60.199219 11.582031 L 60.199219 11.25 C 60.199219 9.785156 59.019531 8.605469 57.550781 8.605469 Z M 14.554688 8.605469 "/>
<path style=" stroke:none;fill-rule:nonzero;fill:rgb(12.941177%,12.941177%,12.941177%);fill-opacity:1;" d="M 14.554688 8.25 C 12.988281 8.25 11.71875 9.519531 11.71875 11.085938 L 11.71875 21.007812 C 11.71875 22.574219 12.988281 23.839844 14.554688 23.839844 L 57.550781 23.839844 C 59.117188 23.839844 60.386719 22.574219 60.386719 21.007812 L 60.386719 11.085938 C 60.386719 9.519531 59.117188 8.25 57.550781 8.25 Z M 14.554688 8.625 L 57.550781 8.625 C 58.917969 8.625 60.011719 9.71875 60.011719 11.085938 L 60.011719 21.007812 C 60.011719 22.371094 58.917969 23.464844 57.550781 23.464844 L 14.554688 23.464844 C 13.1875 23.464844 12.09375 22.371094 12.09375 21.007812 L 12.09375 11.085938 C 12.09375 9.71875 13.1875 8.625 14.554688 8.625 Z M 14.554688 8.625 "/>
<path style=" stroke:none;fill-rule:nonzero;fill:rgb(98.823529%,64.313728%,40.784314%);fill-opacity:1;" d="M 5.292969 13.730469 C 3.828125 13.730469 2.644531 14.910156 2.644531 16.375 L 2.644531 53.421875 C 2.644531 54.886719 3.828125 56.066406 5.292969 56.066406 L 58.214844 56.066406 C 59.679688 56.066406 60.859375 54.886719 60.859375 53.421875 L 60.859375 20.34375 L 25.136719 20.34375 C 23.671875 20.34375 22.492188 19.164062 22.492188 17.699219 L 22.492188 13.730469 Z M 5.292969 13.730469 "/>
<path style=" stroke:none;fill-rule:nonzero;fill:url(#linear2);" d="M 5.292969 13.730469 C 3.828125 13.730469 2.644531 14.910156 2.644531 16.375 L 2.644531 53.421875 C 2.644531 54.886719 3.828125 56.066406 5.292969 56.066406 L 58.214844 56.066406 C 59.679688 56.066406 60.859375 54.886719 60.859375 53.421875 L 60.859375 20.34375 L 25.136719 20.34375 C 23.671875 20.34375 22.492188 19.164062 22.492188 17.699219 L 22.492188 13.730469 Z M 5.292969 13.730469 "/>
<path style=" stroke:none;fill-rule:nonzero;fill:rgb(0%,0%,0%);fill-opacity:0.196078;" d="M 5.292969 56.066406 C 3.828125 56.066406 2.644531 54.886719 2.644531 53.421875 L 2.644531 53.089844 C 2.644531 54.558594 3.828125 55.738281 5.292969 55.738281 L 58.214844 55.738281 C 59.679688 55.738281 60.859375 54.558594 60.859375 53.089844 L 60.859375 53.421875 C 60.859375 54.886719 59.679688 56.066406 58.214844 56.066406 Z M 5.292969 56.066406 "/>
<path style=" stroke:none;fill-rule:nonzero;fill:rgb(100%,100%,100%);fill-opacity:0.392157;" d="M 5.292969 13.894531 C 3.828125 13.894531 2.644531 15.074219 2.644531 16.542969 L 2.644531 16.871094 C 2.644531 15.40625 3.828125 14.226562 5.292969 14.226562 L 22.492188 14.226562 L 22.492188 13.894531 Z M 5.292969 13.894531 "/>
<path style=" stroke:none;fill-rule:nonzero;fill:rgb(100%,100%,100%);fill-opacity:0.392157;" d="M 24.972656 20.675781 C 23.507812 20.675781 22.328125 19.496094 22.328125 18.03125 L 22.328125 17.699219 C 22.328125 19.164062 23.507812 20.347656 24.972656 20.347656 L 60.859375 20.347656 L 60.859375 20.675781 Z M 24.972656 20.675781 "/>
<path style=" stroke:none;fill-rule:nonzero;fill:rgb(12.941177%,12.941177%,12.941177%);fill-opacity:1;" d="M 5.292969 13.542969 C 3.726562 13.542969 2.457031 14.808594 2.457031 16.375 L 2.457031 53.421875 C 2.457031 54.988281 3.726562 56.253906 5.292969 56.253906 L 58.214844 56.253906 C 59.78125 56.253906 61.046875 54.988281 61.046875 53.421875 L 61.046875 19.96875 L 25.136719 19.96875 C 23.773438 19.96875 22.679688 18.878906 22.679688 17.511719 L 22.679688 13.542969 Z M 5.292969 13.917969 L 22.304688 13.917969 L 22.304688 17.511719 C 22.304688 19.078125 23.570312 20.34375 25.136719 20.34375 L 60.671875 20.34375 L 60.671875 53.421875 C 60.671875 54.785156 59.578125 55.878906 58.214844 55.878906 L 5.292969 55.878906 C 3.925781 55.878906 2.832031 54.785156 2.832031 53.421875 L 2.832031 16.375 C 2.832031 15.011719 3.925781 13.917969 5.292969 13.917969 Z M 5.292969 13.917969 "/>
<path style=" stroke:none;fill-rule:nonzero;fill:rgb(95.294118%,39.215687%,20.392157%);fill-opacity:1;" d="M 31.753906 25.636719 C 28.089844 25.636719 25.136719 28.589844 25.136719 32.253906 L 25.136719 36.222656 L 23.152344 36.222656 C 22.785156 36.222656 22.492188 36.515625 22.492188 36.882812 L 22.492188 46.144531 C 22.492188 46.511719 22.785156 46.804688 23.152344 46.804688 L 40.351562 46.804688 C 40.71875 46.804688 41.015625 46.511719 41.015625 46.144531 L 41.015625 36.882812 C 41.015625 36.515625 40.71875 36.222656 40.351562 36.222656 L 38.367188 36.222656 L 38.367188 32.253906 C 38.367188 28.589844 35.417969 25.636719 31.753906 25.636719 Z M 31.753906 28.285156 C 33.953125 28.285156 35.722656 30.054688 35.722656 32.253906 L 35.722656 36.222656 L 27.785156 36.222656 L 27.785156 32.253906 C 27.785156 30.054688 29.554688 28.285156 31.753906 28.285156 Z M 31.753906 38.207031 C 32.851562 38.207031 33.738281 39.09375 33.738281 40.191406 C 33.738281 40.78125 33.480469 41.308594 33.074219 41.671875 L 33.074219 44.160156 C 33.074219 44.527344 32.78125 44.820312 32.414062 44.820312 L 31.089844 44.820312 C 30.726562 44.820312 30.429688 44.527344 30.429688 44.160156 L 30.429688 41.671875 C 30.023438 41.308594 29.769531 40.78125 29.769531 40.191406 C 29.769531 39.09375 30.652344 38.207031 31.753906 38.207031 Z M 31.753906 38.207031 "/>
<path style=" stroke:none;fill-rule:nonzero;fill:rgb(0%,0%,0%);fill-opacity:0.235294;" d="M 31.753906 25.636719 C 28.089844 25.636719 25.136719 28.589844 25.136719 32.253906 L 25.136719 32.75 C 25.136719 29.085938 28.089844 26.132812 31.753906 26.132812 C 35.417969 26.132812 38.367188 29.085938 38.367188 32.75 L 38.367188 32.253906 C 38.367188 28.589844 35.417969 25.636719 31.753906 25.636719 Z M 23.152344 36.222656 C 22.785156 36.222656 22.492188 36.515625 22.492188 36.882812 L 22.492188 37.378906 C 22.492188 37.011719 22.785156 36.71875 23.152344 36.71875 L 25.136719 36.71875 L 25.136719 36.222656 Z M 27.785156 36.222656 L 27.785156 36.71875 L 35.722656 36.71875 L 35.722656 36.222656 Z M 38.367188 36.222656 L 38.367188 36.71875 L 40.351562 36.71875 C 40.71875 36.71875 41.015625 37.011719 41.015625 37.378906 L 41.015625 36.882812 C 41.015625 36.515625 40.71875 36.222656 40.351562 36.222656 Z M 29.785156 40.441406 C 29.773438 40.519531 29.769531 40.601562 29.769531 40.6875 C 29.769531 41.277344 30.023438 41.804688 30.429688 42.167969 L 30.429688 41.671875 C 30.082031 41.363281 29.84375 40.929688 29.785156 40.441406 Z M 33.722656 40.441406 C 33.660156 40.929688 33.425781 41.363281 33.074219 41.671875 L 33.074219 42.167969 C 33.480469 41.804688 33.738281 41.277344 33.738281 40.6875 C 33.738281 40.601562 33.730469 40.519531 33.722656 40.441406 Z M 30.429688 44.160156 L 30.429688 44.65625 C 30.429688 45.023438 30.726562 45.316406 31.089844 45.316406 L 32.414062 45.316406 C 32.78125 45.316406 33.074219 45.023438 33.074219 44.65625 L 33.074219 44.160156 C 33.074219 44.527344 32.78125 44.820312 32.414062 44.820312 L 31.089844 44.820312 C 30.726562 44.820312 30.429688 44.527344 30.429688 44.160156 Z M 30.429688 44.160156 "/>
<path style=" stroke:none;fill-rule:nonzero;fill:rgb(100%,100%,100%);fill-opacity:0.392157;" d="M 31.753906 28.292969 C 29.554688 28.292969 27.785156 30.0625 27.785156 32.261719 L 27.785156 32.757812 C 27.785156 30.558594 29.554688 28.789062 31.753906 28.789062 C 33.953125 28.789062 35.722656 30.558594 35.722656 32.757812 L 35.722656 32.261719 C 35.722656 30.0625 33.953125 28.292969 31.753906 28.292969 Z M 31.753906 38.214844 C 30.652344 38.214844 29.769531 39.097656 29.769531 40.199219 C 29.769531 40.28125 29.773438 40.367188 29.785156 40.445312 C 29.90625 39.464844 30.738281 38.710938 31.753906 38.710938 C 32.769531 38.710938 33.601562 39.464844 33.722656 40.445312 C 33.730469 40.367188 33.738281 40.28125 33.738281 40.199219 C 33.738281 39.097656 32.851562 38.214844 31.753906 38.214844 Z M 22.492188 46.152344 L 22.492188 46.648438 C 22.492188 47.015625 22.785156 47.308594 23.152344 47.308594 L 40.351562 47.308594 C 40.71875 47.308594 41.015625 47.015625 41.015625 46.648438 L 41.015625 46.152344 C 41.015625 46.519531 40.71875 46.8125 40.351562 46.8125 L 23.152344 46.8125 C 22.785156 46.8125 22.492188 46.519531 22.492188 46.152344 Z M 22.492188 46.152344 "/>
<path style="fill:none;stroke-width:3;stroke-linecap:round;stroke-linejoin:round;stroke:rgb(12.941177%,12.941177%,12.941177%);stroke-opacity:1;stroke-miterlimit:4;" d="M 254.006994 -9.925834 C 224.697292 -9.925834 201.074548 13.696911 201.074548 43.006612 L 201.074548 74.75358 L 185.201064 74.75358 C 182.263845 74.75358 179.920318 77.097106 179.920318 80.034326 L 179.920318 154.121001 C 179.920318 157.05822 182.263845 159.401746 185.201064 159.401746 L 322.781676 159.401746 C 325.718895 159.401746 328.093669 157.05822 328.093669 154.121001 L 328.093669 80.034326 C 328.093669 77.097106 325.718895 74.75358 322.781676 74.75358 L 306.908192 74.75358 L 306.908192 43.006612 C 306.908192 13.696911 283.316695 -9.925834 254.006994 -9.925834 Z M 254.006994 11.259643 C 271.599064 11.259643 285.753962 25.414542 285.753962 43.006612 L 285.753962 74.75358 L 222.260025 74.75358 L 222.260025 43.006612 C 222.260025 25.414542 236.414924 11.259643 254.006994 11.259643 Z M 254.006994 90.627064 C 262.787405 90.627064 269.880478 97.720137 269.880478 106.500548 C 269.880478 111.218848 267.818175 115.437195 264.568485 118.343167 L 264.568485 138.247517 C 264.568485 141.184736 262.224959 143.528262 259.287739 143.528262 L 248.695001 143.528262 C 245.789028 143.528262 243.414255 141.184736 243.414255 138.247517 L 243.414255 118.343167 C 240.164565 115.437195 238.133509 111.218848 238.133509 106.500548 C 238.133509 97.720137 245.195335 90.627064 254.006994 90.627064 Z M 254.006994 90.627064 " transform="matrix(0.125012,0,0,0.125012,0,26.877566)"/>
</g>
</svg>

<svg xmlns="http://www.w3.org/2000/svg" width="64pt" height="64pt" viewBox="0 0 64 64"><defs><linearGradient id="a" gradientUnits="userSpaceOnUse" x1="254" y1="233.5" x2="254" y2="254.667" gradientTransform="translate(0 26.878) scale(.12501)"><stop offset="0" stop-opacity=".275"/><stop offset="1" stop-opacity="0"/></linearGradient><radialGradient id="b" gradientUnits="userSpaceOnUse" cx="450.909" cy="189.579" fx="450.909" fy="189.579" r="21.167" gradientTransform="matrix(0 -.15626 -.28128 0 108.23 127.19)"><stop offset="0" stop-opacity=".314"/><stop offset=".222" stop-opacity=".275"/><stop offset="1" stop-opacity="0"/></radialGradient><radialGradient id="c" gradientUnits="userSpaceOnUse" cx="450.909" cy="189.579" fx="450.909" fy="189.579" r="21.167" gradientTransform="matrix(0 .15626 .28128 0 -44.724 -15.055)"><stop offset="0" stop-opacity=".314"/><stop offset=".222" stop-opacity=".275"/><stop offset="1" stop-opacity="0"/></radialGradient><radialGradient id="d" gradientUnits="userSpaceOnUse" cx="450.909" cy="189.579" fx="450.909" fy="189.579" r="21.167" gradientTransform="matrix(0 -.15626 .28128 0 -44.724 127.19)"><stop offset="0" stop-opacity=".314"/><stop offset=".222" stop-opacity=".275"/><stop offset="1" stop-opacity="0"/></radialGradient><radialGradient id="e" gradientUnits="userSpaceOnUse" cx="450.909" cy="189.579" fx="450.909" fy="189.579" r="21.167" gradientTransform="matrix(0 .15626 -.28128 0 108.23 -15.055)"><stop offset="0" stop-opacity=".314"/><stop offset=".222" stop-opacity=".275"/><stop offset="1" stop-opacity="0"/></radialGradient><linearGradient id="f" gradientUnits="userSpaceOnUse" x1="254" y1="-147.5" x2="254" y2="-31.083" gradientTransform="translate(0 26.878) scale(.12501)"><stop offset="0" stop-color="#a4a4a4" stop-opacity="0"/><stop offset="1" stop-color="#fff" stop-opacity=".196"/></linearGradient><linearGradient id="g" gradientUnits="userSpaceOnUse" x1="254" y1="233.5" x2="254" y2="-105.167" gradientTransform="translate(0 26.878) scale(.12501)"><stop offset="0" stop-color="#585858" stop-opacity="0"/><stop offset="1" stop-color="#fafafa" stop-opacity=".196"/></linearGradient><linearGradient id="h" gradientUnits="userSpaceOnUse" x1="960" y1="255.118" x2="960" y2="1695.118" gradientTransform="scale(.03308)"><stop offset="0" stop-color="#a4a4a4" stop-opacity="0"/><stop offset="1" stop-color="#fff" stop-opacity=".196"/></linearGradient></defs><path d="M7.938 56.066h47.628v2.649H7.937zm0 0" fill="url(#a)"/><path d="M55.566 56.066h5.293v-2.644h-5.293zm0 0" fill="url(#b)"/><path d="M7.938 56.066H2.644v2.649h5.292zm0 0" fill="url(#c)"/><path d="M7.938 56.066H2.644v-2.644h5.292zm0 0" fill="url(#d)"/><path d="M55.566 56.066h5.293v2.649h-5.293zm0 0" fill="url(#e)"/><path d="M14.555 8.438H57.55a2.646 2.646 0 0 1 2.648 2.648v9.922a2.645 2.645 0 0 1-2.648 2.644H14.555a2.647 2.647 0 0 1-2.649-2.644v-9.922a2.648 2.648 0 0 1 2.649-2.649zm0 0" fill="#6e3d62"/><path d="M14.555 8.438H57.55a2.646 2.646 0 0 1 2.648 2.648v9.922a2.645 2.645 0 0 1-2.648 2.644H14.555a2.647 2.647 0 0 1-2.649-2.644v-9.922a2.648 2.648 0 0 1 2.649-2.649zm0 0" fill="url(#f)"/><path d="M14.555 8.438a2.64 2.64 0 0 0-2.649 2.648v.328a2.64 2.64 0 0 1 2.649-2.644H57.55a2.64 2.64 0 0 1 2.648 2.644v-.328a2.64 2.64 0 0 0-2.648-2.649zm0 0" fill="#e6e6e6" fill-opacity=".588"/><path d="M14.555 8.25a2.836 2.836 0 0 0-2.836 2.836v9.922a2.832 2.832 0 0 0 2.836 2.832H57.55a2.832 2.832 0 0 0 2.836-2.832v-9.922A2.836 2.836 0 0 0 57.55 8.25zm0 .375H57.55a2.45 2.45 0 0 1 2.46 2.46v9.923a2.45 2.45 0 0 1-2.46 2.457H14.555a2.45 2.45 0 0 1-2.461-2.457v-9.922a2.45 2.45 0 0 1 2.46-2.461zm0 0" fill="#212121"/><path d="M5.293 13.73a2.642 2.642 0 0 0-2.648 2.645v37.047a2.642 2.642 0 0 0 2.648 2.644h52.922a2.639 2.639 0 0 0 2.644-2.644V20.344H25.137a2.639 2.639 0 0 1-2.645-2.645V13.73zm0 0" fill="#e46d43"/><path d="M5.293 13.73a2.642 2.642 0 0 0-2.648 2.645v37.047a2.642 2.642 0 0 0 2.648 2.644h52.922a2.639 2.639 0 0 0 2.644-2.644V20.348H25.137a2.642 2.642 0 0 1-2.645-2.649V13.73zm0 0" fill="url(#g)"/><path d="M5.293 56.066a2.642 2.642 0 0 1-2.648-2.644v-.332a2.643 2.643 0 0 0 2.648 2.648h52.922a2.64 2.64 0 0 0 2.644-2.648v.332a2.639 2.639 0 0 1-2.644 2.644zm0 0" fill-opacity=".196"/><path d="M5.293 13.73a2.642 2.642 0 0 0-2.648 2.645v.332a2.642 2.642 0 0 1 2.648-2.645h17.2v-.332zm0 0M24.973 20.512a2.64 2.64 0 0 1-2.645-2.649v-.328a2.637 2.637 0 0 0 2.645 2.645h35.886v.332zm0 0" fill="#e6e6e6" fill-opacity=".937"/><path d="M5.293 13.543a2.832 2.832 0 0 0-2.836 2.832v37.047a2.832 2.832 0 0 0 2.836 2.832h52.922a2.83 2.83 0 0 0 2.832-2.832V19.969h-35.91a2.447 2.447 0 0 1-2.457-2.457v-3.969zm0 .375h17.012v3.594a2.83 2.83 0 0 0 2.832 2.832h35.535v33.078a2.449 2.449 0 0 1-2.457 2.457H5.293a2.45 2.45 0 0 1-2.461-2.457V16.375a2.45 2.45 0 0 1 2.461-2.457zm0 0" fill="#212121"/><path d="M31.754 25.637a6.605 6.605 0 0 0-6.617 6.617v3.969h-1.985a.657.657 0 0 0-.66.66v9.262c0 .367.293.66.66.66h17.2a.66.66 0 0 0 .664-.66v-9.262a.66.66 0 0 0-.664-.66h-1.985v-3.97a6.602 6.602 0 0 0-6.613-6.616zm0 2.648a3.96 3.96 0 0 1 3.969 3.969v3.969h-7.938v-3.97a3.96 3.96 0 0 1 3.969-3.968zm0 0" fill="#6e3d62"/><path d="M31.754 25.637a6.605 6.605 0 0 0-6.617 6.617v3.969h-1.985a.657.657 0 0 0-.66.66v9.262c0 .367.293.66.66.66h17.2a.66.66 0 0 0 .664-.66v-9.262a.66.66 0 0 0-.664-.66h-1.985v-3.97a6.602 6.602 0 0 0-6.613-6.616zm0 2.648a3.96 3.96 0 0 1 3.969 3.969v3.969h-7.938v-3.97a3.96 3.96 0 0 1 3.969-3.968zm0 0" fill="url(#h)"/><path d="M31.754 25.45a6.795 6.795 0 0 0-6.805 6.804v3.781h-1.797a.852.852 0 0 0-.847.848v9.262a.85.85 0 0 0 .847.847h17.2a.85.85 0 0 0 .851-.847v-9.262a.853.853 0 0 0-.851-.848h-1.797v-3.781a6.792 6.792 0 0 0-6.801-6.805zm0 .374a6.41 6.41 0 0 1 6.426 6.43v3.969a.19.19 0 0 0 .187.187h1.985a.47.47 0 0 1 .476.473v9.262a.47.47 0 0 1-.476.472h-17.2a.467.467 0 0 1-.472-.472v-9.262c0-.266.207-.473.472-.473h1.985a.188.188 0 0 0 .187-.187v-3.97a6.41 6.41 0 0 1 6.43-6.429zm0 2.274a4.15 4.15 0 0 0-4.156 4.156v3.969c0 .101.082.187.187.187h7.938a.19.19 0 0 0 .187-.187v-3.97c0-2.3-1.86-4.155-4.156-4.155zm0 .375a3.77 3.77 0 0 1 3.781 3.78v3.782h-7.562v-3.781a3.77 3.77 0 0 1 3.78-3.781zm0 0" fill="#212121"/></svg>
